16x16/apps/choqok.svg

<svg xmlns="http://www.w3.org/2000/svg" width="16" height="16" version="1.1">
 <path style="fill:#81b427" d="M 8,0 7.2380952,1 6.4,0.5 5.8333332,1.7262 C 4.0785144,2.0873 2.8385828,2.9354 1.8110133,4.276 0.01370668,6.6209 0,10.6667 0,12.9524 0,15.2381 4.190476,16 8,16 11.809524,16 16,15.2381 16,12.9524 16,10.6667 15.98628,6.6209 14.188987,4.276 13.161417,2.9354 11.921486,2.0873 10.166667,1.7262 L 9.6,0.5 8.7619048,1 Z"/>
 <circle style="fill:#f4f4f7" cx="11.5" cy="8.5" r="1.5"/>
 <circle style="fill:#86572f" cx="8" cy="12.5" r="1.5"/>
 <path style="fill:#ffc12e" d="m 8.0000004,9.9999 c -0.076585,10e-5 -0.150514,0.035 -0.2047416,0.098 l -1.7012171,1.7377 c -0.1820414,0.2101 -0.086301,0.831 0.1712383,0.8311 L 8.0000004,13 9.7347211,12.6667 C 9.9922569,12.6666 10.088,12.0457 9.9059594,11.8356 L 8.2047421,10.0979 c -0.054228,-0.063 -0.128157,-0.097 -0.2047417,-0.098 z"/>
 <rect style="fill:#17191e" width="1" height="1" x="11" y="8"/>
 <path style="fill:#f4f4f7" d="M 4.5,8 A 1.5,1.5 0 0 0 3,9.5 1.5,1.5 0 0 0 3.0878906,10 1.5,1.5 0 0 1 4.5,9 1.5,1.5 0 0 1 5.9121094,10 1.5,1.5 0 0 0 6,9.5 1.5,1.5 0 0 0 4.5,8 Z"/>
</svg>

<svg xmlns="http://www.w3.org/2000/svg" width="16" height="16"><path style="fill:#81b427" d="m8 0-.762 1L6.4.5l-.567 1.226c-1.754.361-2.994 1.21-4.022 2.55C.014 6.621 0 10.666 0 12.952 0 15.238 4.19 16 8 16c3.81 0 8-.762 8-3.048 0-2.285-.014-6.331-1.811-8.676-1.028-1.34-2.268-2.189-4.022-2.55L9.6.5l-.838.5z"/><circle style="fill:#f4f4f7" cx="11.5" cy="8.5" r="1.5"/><circle style="fill:#86572f" cx="8" cy="12.5" r="1.5"/><path style="fill:#ffc12e" d="M8 10a.271.271 0 0 0-.205.098l-1.701 1.738c-.182.21-.086.83.171.83L8 13l1.735-.333c.257 0 .353-.621.171-.831l-1.701-1.738A.274.274 0 0 0 8 10z"/><path style="fill:#17191e" d="M11 8h1v1h-1z"/><path style="fill:#f4f4f7" d="M4.5 8A1.5 1.5 0 0 0 3 9.5a1.5 1.5 0 0 0 .088.5A1.5 1.5 0 0 1 4.5 9a1.5 1.5 0 0 1 1.412 1A1.5 1.5 0 0 0 6 9.5 1.5 1.5 0 0 0 4.5 8z"/></svg>
